X:225
T: Mailied des 14. Jahrhunderts
N: A0579
O: Europa, Mitteleuropa, Deutschland
N: Triller 1555
R: Romanze, Ballade, Lied, religioeses Lied
M: 4/1
L: 1/2
K: F
F | F2F2F2D2 | C4G3
A | G2F2E2D2 | C6z
F | F2F2F2D2 | C4G3
A | G2F2E2D2 | C6z
C | F2F2E2E2 | F4G3
G | G2G2A2F2 | G4G4
c3BA2G2 | F4B2
B2 | A2G2F2E2 | F6z

